src/lib/packages/icons/src/assets/line/time-forward.svg

<svg width="24" height="24" viewBox="0 0 24 24" fill="none" xmlns="http://www.w3.org/2000/svg">
<path d="M16 6.25H17.8469C16.3149 4.671 14.2139 3.75 11.9729 3.75C7.4389 3.75 3.74902 7.451 3.74902 12C3.74902 16.549 7.4379 20.25 11.9729 20.25C15.1229 20.25 17.9409 18.4949 19.3259 15.6699C19.5089 15.2989 19.9571 15.1429 20.3301 15.3269C20.7021 15.5089 20.8551 15.9581 20.6741 16.3301C19.0341 19.6731 15.7011 21.75 11.9741 21.75C6.61312 21.75 2.25 17.376 2.25 12C2.25 6.624 6.61212 2.25 11.9741 2.25C14.7851 2.25 17.419 3.46395 19.25 5.54395V3C19.25 2.586 19.586 2.25 20 2.25C20.414 2.25 20.75 2.586 20.75 3V7C20.75 7.414 20.414 7.75 20 7.75H16C15.586 7.75 15.25 7.414 15.25 7C15.25 6.586 15.586 6.25 16 6.25ZM12 7.25C11.586 7.25 11.25 7.586 11.25 8V12C11.25 12.199 11.329 12.39 11.47 12.53L13.47 14.53C13.616 14.676 13.808 14.75 14 14.75C14.192 14.75 14.384 14.677 14.53 14.53C14.823 14.237 14.823 13.762 14.53 13.469L12.75 11.689V8C12.75 7.586 12.414 7.25 12 7.25Z" fill="currentColor"/>
</svg>

<svg xmlns="http://www.w3.org/2000/svg" width="24" height="24" fill="none"><path fill="currentColor" d="M16 6.25h1.847a8.174 8.174 0 0 0-5.874-2.5c-4.534 0-8.224 3.701-8.224 8.25 0 4.549 3.689 8.25 8.224 8.25a8.134 8.134 0 0 0 7.353-4.58.75.75 0 0 1 1.348.66 9.626 9.626 0 0 1-8.7 5.42c-5.36 0-9.724-4.374-9.724-9.75s4.362-9.75 9.724-9.75a9.68 9.68 0 0 1 7.276 3.294V3a.75.75 0 0 1 1.5 0v4a.75.75 0 0 1-.75.75h-4a.75.75 0 0 1 0-1.5Zm-4 1a.75.75 0 0 0-.75.75v4c0 .199.079.39.22.53l2 2a.748.748 0 0 0 1.06 0 .75.75 0 0 0 0-1.061l-1.78-1.78V8a.75.75 0 0 0-.75-.75Z"/></svg>
